X: 492
T: The Editor
C: Bert Murray
R: jig
B: Bert Murray's "Bon Accord Collection" 1999 p.49
%
N: Written for Ron Ramsay of the "Box and Fiddle"
Z: 2011 John Chambers <jc:trillian.mit.edu>
M: 6/8
L: 1/8
K: G
ud |\
B2B B2A | G2G G2A | B>dg g>fe | f3 (f2e) |\
e>^de c>Bc | A>GA F>ED | D>FA e>dc | B3 (B2c) |
d>cB d>cB | G2G G>Bd | g>fg a2g | e3 (e2f) |\
g>fg d>cB | e>dc B>AG | A>Bc d>ef | g3 g2 ||
uB |\
d>dd (d2B) | d>dd (d2B) | G>Bd g>fe | f3 (f2e) |\
e>^de c>Bc | A>^GA F>ED | D>FA e>dc | B3 (B2c) |
d>cB d>cB | G2G G>Bd | g>fg a2g | e3 (e2f) |\
g>fe d>cB | e>dc B>AG | A>Bc d>ef | g3 g2 |]
